dist/svg/u1F3A2.svg

<?xml version="1.0" encoding="UTF-8"?><svg id="Layer_1" xmlns="http://www.w3.org/2000/svg" viewBox="0 0 40 40"><rect x="0" y="0" width="40" height="40" transform="translate(40 40) rotate(-180)" style="fill:none;"/><g><g><g><circle cx="12.56514" cy="21.46954" r="1.22365" style="fill:#313d4c;"/><circle cx="12.56514" cy="21.46954" r=".48946" style="fill:#6b7683;"/></g><g><circle cx="17.14506" cy="16.81185" r="1.22365" style="fill:#313d4c;"/><circle cx="17.14506" cy="16.81185" r=".48946" style="fill:#6b7683;"/></g><path d="M9.34638,21.40877c-.23266-.62629-.35939-1.5873-.35236-2.28448,.01365-1.35785,.27351-2.31024,.64972-2.80876,.02164-.03641,.04615-.07084,.07602-.10122l4.36843-4.44262c.15868-.16138,.46717-.11541,.689,.10272l3.2706,3.21598c.22182,.21811,.27298,.52578,.11429,.68716l-6.98869,7.10737c-.56005,.56956-1.44774-.45523-1.82701-1.47616Z" style="fill:#ef4452;"/><path d="M9.34638,21.40877c-.01412-.03802-.0266-.08075-.03995-.12111l7.39528-7.52086,.66586,.65474-7.63228,7.76188c-.1544-.2395-.28941-.5068-.38891-.77464Z" style="fill:#e1e7ee;"/></g><g><g><circle cx="21.00024" cy="14.04231" r="1.22365" style="fill:#313d4c;"/><circle cx="21.00024" cy="14.04231" r=".48946" style="fill:#6b7683;"/></g><g><circle cx="25.48021" cy="12.14924" r="1.22365" style="fill:#313d4c;"/><circle cx="25.48021" cy="12.14924" r=".48946" style="fill:#6b7683;"/></g><rect x="17.69093" y="7.60606" width="8.88205" height="5.71345" rx=".54259" ry=".54259" transform="translate(46.59104 11.48588) rotate(157.09297)" style="fill:#ef4452;"/><rect x="18.03056" y="10.7996" width="8.88205" height=".93383" transform="translate(-2.61319 9.63528) rotate(-22.90703)" style="fill:#e1e7ee;"/></g><g><g><circle cx="30.27688" cy="11.28446" r="1.22365" style="fill:#313d4c;"/><circle cx="30.27688" cy="11.28446" r=".48946" style="fill:#6b7683;"/></g><g><circle cx="35.14039" cy="11.29342" r="1.22365" style="fill:#313d4c;"/><circle cx="35.14039" cy="11.29342" r=".48946" style="fill:#6b7683;"/></g><rect x="28.27686" y="5.5755" width="8.88205" height="5.71345" rx=".54259" ry=".54259" transform="translate(65.42019 16.92467) rotate(-179.89452)" style="fill:#ef4452;"/><rect x="32.24936" y="4.86375" width=".93383" height="8.88205" transform="translate(23.35129 42.00386) rotate(-89.89452)" style="fill:#e1e7ee;"/></g><path d="M34.04553,35.43744c-.51018,0-.92415-.41306-.92415-.92369V13.26967c0-.51063,.41398-.92369,.92415-.92369s.92415,.41306,.92415,.92369v21.24407c0,.51063-.41398,.92369-.92415,.92369Z" style="fill:#fa0;"/><path d="M27.9517,35.43744c-.51018,0-.92415-.41306-.92415-.92369V13.7876c0-.51063,.41398-.92369,.92415-.92369s.92415,.41306,.92415,.92369v20.72615c0,.51063-.41398,.92369-.92415,.92369Z" style="fill:#fa0;"/><path d="M21.85741,35.43744c-.51018,0-.92415-.41306-.92415-.92369V15.89304c0-.51063,.41398-.92369,.92415-.92369s.92415,.41306,.92415,.92369v18.6207c0,.51063-.41398,.92369-.92415,.92369Z" style="fill:#fa0;"/><path d="M15.76358,35.43744c-.51018,0-.92415-.41306-.92415-.92369v-13.10863c0-.51063,.41398-.92369,.92415-.92369s.92415,.41306,.92415,.92369v13.10863c0,.51063-.41398,.92369-.92415,.92369Z" style="fill:#fa0;"/><path d="M9.66975,35.43744c-.51018,0-.92415-.41306-.92415-.92369v-7.00294c0-.51063,.41398-.92369,.92415-.92369s.92415,.41306,.92415,.92369v7.00294c0,.51063-.41398,.92369-.92415,.92369Z" style="fill:#fa0;"/><path d="M2.65495,35.66904c-.29544,0-.59133-.11307-.81655-.33829-.45136-.45136-.45136-1.18266,0-1.63402L17.99394,17.54165c3.49919-3.49965,8.15277-5.42728,13.1027-5.42728h6.24839c.63783,0,1.15485,.51701,1.15485,1.1553s-.51701,1.1553-1.15485,1.1553h-6.24839c-4.33307,0-8.40626,1.68691-11.46959,4.75069L3.47151,35.33075c-.22522,.22522-.52112,.33829-.81655,.33829Z" style="fill:#ffcc35;"/></g></svg>

<svg id="Layer_1" data-name="Layer 1" xmlns="http://www.w3.org/2000/svg" viewBox="0 0 40 40"><defs><style>.cls-1{fill:none;}.cls-2{fill:#313d4c;}.cls-3{fill:#6b7683;}.cls-4{fill:#ef4452;}.cls-5{fill:#e1e7ee;}.cls-6{fill:#fa0;}.cls-7{fill:#ffcc35;}</style></defs><rect class="cls-1" width="40" height="40" transform="translate(40 40) rotate(-180)"/><circle class="cls-2" cx="12.565" cy="21.47" r="1.224"/><circle class="cls-3" cx="12.565" cy="21.47" r="0.489"/><circle class="cls-2" cx="17.145" cy="16.812" r="1.224"/><circle class="cls-3" cx="17.145" cy="16.812" r="0.489"/><path class="cls-4" d="M9.346,21.409a7.263,7.263,0,0,1-.352-2.285,4.98,4.98,0,0,1,.65-2.808.5.5,0,0,1,.076-.1l4.368-4.442a.5.5,0,0,1,.689.1l3.271,3.216a.506.506,0,0,1,.114.688l-6.989,7.107C10.613,23.454,9.726,22.43,9.346,21.409Z"/><path class="cls-5" d="M9.346,21.409c-.014-.038-.026-.081-.04-.121l7.4-7.521.666.655L9.735,22.183A4.094,4.094,0,0,1,9.346,21.409Z"/><circle class="cls-2" cx="21" cy="14.042" r="1.224"/><circle class="cls-3" cx="21" cy="14.042" r="0.489"/><circle class="cls-2" cx="25.48" cy="12.149" r="1.224"/><circle class="cls-3" cx="25.48" cy="12.149" r="0.489"/><rect class="cls-4" x="17.691" y="7.606" width="8.882" height="5.713" rx="0.543" transform="translate(46.591 11.486) rotate(157.093)"/><rect class="cls-5" x="18.031" y="10.8" width="8.882" height="0.934" transform="translate(-2.613 9.635) rotate(-22.907)"/><circle class="cls-2" cx="30.277" cy="11.284" r="1.224"/><circle class="cls-3" cx="30.277" cy="11.284" r="0.489"/><circle class="cls-2" cx="35.14" cy="11.293" r="1.224"/><circle class="cls-3" cx="35.14" cy="11.293" r="0.489"/><rect class="cls-4" x="28.277" y="5.576" width="8.882" height="5.713" rx="0.543" transform="translate(65.42 16.925) rotate(-179.895)"/><rect class="cls-5" x="32.249" y="4.864" width="0.934" height="8.882" transform="translate(23.351 42.004) rotate(-89.895)"/><path class="cls-6" d="M34.046,35.437a.924.924,0,0,1-.925-.923V13.27a.925.925,0,0,1,1.849,0V34.514A.924.924,0,0,1,34.046,35.437Z"/><path class="cls-6" d="M27.952,35.437a.924.924,0,0,1-.924-.923V13.788a.924.924,0,1,1,1.848,0V34.514A.924.924,0,0,1,27.952,35.437Z"/><path class="cls-6" d="M21.857,35.437a.924.924,0,0,1-.924-.923V15.893a.925.925,0,0,1,1.849,0V34.514A.924.924,0,0,1,21.857,35.437Z"/><path class="cls-6" d="M15.764,35.437a.924.924,0,0,1-.925-.923V21.405a.925.925,0,0,1,1.849,0V34.514A.924.924,0,0,1,15.764,35.437Z"/><path class="cls-6" d="M9.67,35.437a.924.924,0,0,1-.924-.923v-7a.924.924,0,0,1,1.848,0v7A.924.924,0,0,1,9.67,35.437Z"/><path class="cls-7" d="M2.655,35.669A1.155,1.155,0,0,1,1.838,33.7L17.994,17.542a18.407,18.407,0,0,1,13.1-5.428h6.248a1.156,1.156,0,0,1,0,2.311H31.1a16.112,16.112,0,0,0-11.47,4.751L3.472,35.331A1.156,1.156,0,0,1,2.655,35.669Z"/></svg>
